public/svg/icon/cmt.svg

<svg xmlns="http://www.w3.org/2000/svg" xmlns:xlink="http://www.w3.org/1999/xlink" width="32" height="32" viewBox="0 0 32 32"><defs><linearGradient id="cmt-c" x1="50%" x2="50%" y1="0%" y2="100%"><stop offset="0%" stop-color="#FFF" stop-opacity=".5"/><stop offset="100%" stop-opacity=".5"/></linearGradient><circle id="cmt-b" cx="16" cy="15" r="15"/><filter id="cmt-a" width="111.7%" height="111.7%" x="-5.8%" y="-4.2%" filterUnits="objectBoundingBox"><feOffset dy=".5" in="SourceAlpha" result="shadowOffsetOuter1"/><feGaussianBlur in="shadowOffsetOuter1" result="shadowBlurOuter1" stdDeviation=".5"/><feComposite in="shadowBlurOuter1" in2="SourceAlpha" operator="out" result="shadowBlurOuter1"/><feColorMatrix in="shadowBlurOuter1" values="0 0 0 0 0 0 0 0 0 0 0 0 0 0 0 0 0 0 0.199473505 0"/></filter><path id="cmt-e" d="M16.2759586,24.9997807 C13.9573991,24.9938552 11.8810346,24.2815021 10.0271924,22.9198219 C9.53438651,22.5579353 9.51919466,22.3505428 9.9392109,21.8990195 C9.95145181,21.885768 9.96434849,21.8731628 9.9765894,21.8596958 C10.489724,21.3026986 10.4873195,21.305823 11.0956491,21.7436637 C12.5322073,22.777933 14.1290997,23.3281428 15.9186771,23.3899835 C17.7646501,23.4537634 19.461437,23.0126906 20.993846,22.0239938 C22.8326056,20.8378161 24.0871896,19.1864327 24.6119094,17.0769541 C25.2705141,14.42944 24.7808777,11.9761746 23.0454007,9.8224164 C21.8289602,8.31270633 20.2486806,7.33866161 18.3399729,6.87765759 C16.6356447,6.46610457 14.9619188,6.56673036 13.3174836,7.13320831 C12.4455373,7.43357737 11.640916,7.87454242 10.9137841,8.44252868 C10.5550817,8.72285878 10.4187923,8.71682554 10.1137532,8.37476249 C9.96970389,8.2131579 9.82587319,8.04929085 9.70171538,7.87314185 C9.51416715,7.60692522 9.53974191,7.44898367 9.79417797,7.24676247 C11.0123672,6.27907419 12.3893603,5.62856185 13.908654,5.27292402 C15.281494,4.95154636 16.6669027,4.91265353 18.0544974,5.16335611 C19.921892,5.50089423 21.5835956,6.26927018 23.0107546,7.51362551 C24.0669703,8.43466393 24.9211017,9.51299748 25.5147858,10.7725436 C26.3330688,12.5086079 26.6663057,14.3271982 26.4211597,16.2452292 C26.1933913,18.0261117 25.5249501,19.6206103 24.4317931,21.044239 C23.3243186,22.4865061 21.9073239,23.5390906 20.2127229,24.2302196 C18.9524556,24.7441222 17.6426782,25.0087228 16.2759586,24.9997807 Z M15.6397264,18.6166795 C15.5728386,18.7187059 15.5375367,18.795091 15.4823433,18.8529454 C15.1438602,19.2076136 14.7308388,19.4212549 14.2331146,19.4368767 C13.888074,19.4475426 13.5418311,19.418346 13.1966811,19.4258876 C13.0677144,19.4286887 12.9206049,19.4552996 12.8145898,19.5218807 C11.2211949,20.5219976 9.50506297,20.6684114 7.69690563,20.2842234 C7.10212853,20.1577409 6.56910246,19.929232 6.11520513,19.5394417 C5.77322469,19.2457523 5.5316853,18.900134 5.50283172,18.4143506 C5.45255655,17.5673271 6.08001251,16.9894291 6.72561124,16.7997053 C7.91855354,16.4492388 9.05433516,16.6634187 10.1395137,17.1893878 C10.6358171,17.4300709 11.0998787,17.7360423 11.5743233,18.0191735 C11.8456999,18.1811013 11.9267959,18.1746371 12.0628668,17.8970004 C12.6779725,16.641225 12.2813452,15.2556273 10.7792106,14.7438794 C9.46090826,14.2948342 8.17222455,14.3388983 6.90310444,14.9237992 C6.71675844,15.0097729 6.51292542,15.1739631 6.29433773,14.9975986 C6.06678795,14.8139081 6.21925286,14.5952032 6.27706931,14.4005236 C6.69424391,12.9973648 7.11677391,11.5957143 7.54586153,10.1961108 C7.64007283,9.88873892 7.88467245,9.73079737 8.24293767,9.75018992 C8.7696247,9.77874006 9.29423515,9.85771084 9.82081288,9.87042373 C10.611226,9.88949307 11.4040435,9.89725009 12.193145,9.8576031 C12.7795065,9.82819107 13.2954827,9.56973146 13.7482871,9.19631713 C13.8030434,9.15117558 13.913758,9.09903116 13.9499343,9.1225177 C14.0034883,9.15753202 14.0345277,9.25600309 14.0392274,9.32958704 C14.077043,9.93625067 13.8167051,10.4033957 13.335375,10.7662518 C12.7645333,11.1964432 12.1135791,11.3955401 11.4032784,11.4126702 C10.6664193,11.430339 9.92934167,11.4396043 9.19237328,11.4439137 C9.02733958,11.4447756 8.93935804,11.5053235 8.90012155,11.6607871 C8.83443595,11.9219401 8.7642693,12.1821235 8.68852867,12.4405831 C8.63191446,12.633539 8.70514133,12.710355 8.90001225,12.703029 C9.36374603,12.6856834 9.8275891,12.6553017 10.2913229,12.6581029 C11.3922398,12.6645671 12.3545721,13.035288 13.173948,13.7643402 C13.9465462,14.4519138 14.2604381,15.3404158 14.3069973,16.3324525 C14.3442665,17.1269007 14.1918016,17.8883815 13.7553912,18.5734772 C13.6363702,18.7601844 13.6897056,18.8413099 13.8913528,18.8944239 C14.4247067,19.0350199 14.9184963,18.9388113 15.3892249,18.67615 C15.4284614,18.6542795 15.4661678,18.6291769 15.5068251,18.6102153 C15.520924,18.6035357 15.5419084,18.6110772 15.6397264,18.6166795 Z M11.0723367,18.8426027 C11.0669813,18.8104973 11.0616259,18.7784996 11.0563798,18.7463941 C10.9888362,18.7047002 10.9252272,18.6543873 10.8532025,18.6223896 C10.3226902,18.3866623 9.80048423,18.1274486 9.25587301,17.9286749 C8.70098816,17.7262382 8.12424455,17.5807941 7.51963101,17.7220365 C7.24781722,17.7854933 6.97633132,17.8540136 6.8966561,18.1674188 C6.80911174,18.5120675 7.02026744,18.7270016 7.26585071,18.9145707 C7.34344934,18.9739334 7.4380978,19.0159506 7.5304511,19.0516113 C8.46392982,19.4117741 9.4121632,19.42244 10.3642219,19.1401707 C10.6083843,19.0677718 10.8366992,18.9432285 11.0723367,18.8426027 Z"/><filter id="cmt-d" width="116.7%" height="117.5%" x="-8.3%" y="-6.2%" filterUnits="objectBoundingBox"><feOffset dy=".5" in="SourceAlpha" result="shadowOffsetOuter1"/><feGaussianBlur in="shadowOffsetOuter1" result="shadowBlurOuter1" stdDeviation=".5"/><feColorMatrix in="shadowBlurOuter1" values="0 0 0 0 0 0 0 0 0 0 0 0 0 0 0 0 0 0 0.204257246 0"/></filter></defs><g fill="none" fill-rule="evenodd"><use fill="#000" filter="url(#cmt-a)" xlink:href="#cmt-b"/><use fill="#C1A05C" xlink:href="#cmt-b"/><use fill="url(#cmt-c)" style="mix-blend-mode:soft-light" xlink:href="#cmt-b"/><circle cx="16" cy="15" r="14.5" stroke="#000" stroke-opacity=".097"/><g><use fill="#000" filter="url(#cmt-d)" xlink:href="#cmt-e"/><use fill="#FFF" xlink:href="#cmt-e"/></g></g></svg>

<svg xmlns="http://www.w3.org/2000/svg" xmlns:xlink="http://www.w3.org/1999/xlink" width="32" height="32" viewBox="0 0 32 32"><defs><filter id="a" width="111.7%" height="111.7%" x="-5.8%" y="-4.2%" filterUnits="objectBoundingBox"><feOffset dy=".5" in="SourceAlpha" result="shadowOffsetOuter1"/><feGaussianBlur in="shadowOffsetOuter1" result="shadowBlurOuter1" stdDeviation=".5"/><feComposite in="shadowBlurOuter1" in2="SourceAlpha" operator="out" result="shadowBlurOuter1"/><feColorMatrix in="shadowBlurOuter1" values="0 0 0 0 0 0 0 0 0 0 0 0 0 0 0 0 0 0 0.199473505 0"/></filter><filter id="d" width="116.7%" height="117.5%" x="-8.3%" y="-6.2%" filterUnits="objectBoundingBox"><feOffset dy=".5" in="SourceAlpha" result="shadowOffsetOuter1"/><feGaussianBlur in="shadowOffsetOuter1" result="shadowBlurOuter1" stdDeviation=".5"/><feColorMatrix in="shadowBlurOuter1" values="0 0 0 0 0 0 0 0 0 0 0 0 0 0 0 0 0 0 0.204257246 0"/></filter><linearGradient id="c" x1="50%" x2="50%" y1="0%" y2="100%"><stop offset="0%" stop-color="#FFF" stop-opacity=".5"/><stop offset="100%" stop-opacity=".5"/></linearGradient><circle id="b" cx="16" cy="15" r="15"/><path id="e" d="M16.276 25c-2.319-.006-4.395-.718-6.249-2.08-.493-.362-.508-.57-.088-1.021l.038-.04c.513-.556.51-.553 1.119-.115a8.564 8.564 0 004.823 1.646c1.846.064 3.542-.377 5.075-1.366 1.839-1.186 3.093-2.838 3.618-4.947.659-2.648.169-5.1-1.567-7.255-1.216-1.51-2.796-2.483-4.705-2.944-1.704-.412-3.378-.311-5.023.255-.871.3-1.676.742-2.403 1.31-.359.28-.495.274-.8-.068a5.714 5.714 0 01-.412-.502c-.188-.266-.162-.424.092-.626a10.305 10.305 0 014.115-1.974 10.126 10.126 0 014.145-.11c1.868.338 3.53 1.106 4.957 2.35 1.056.922 1.91 2 2.504 3.26.818 1.736 1.151 3.554.906 5.472a9.784 9.784 0 01-1.99 4.8c-1.107 1.442-2.524 2.494-4.218 3.185a10.15 10.15 0 01-3.937.77zm-.636-6.383c-.067.102-.102.178-.158.236-.338.355-.751.568-1.249.584-.345.01-.691-.019-1.036-.011a.78.78 0 00-.382.096c-1.594 1-3.31 1.146-5.118.762-.595-.126-1.128-.355-1.582-.745-.342-.293-.583-.639-.612-1.125-.05-.847.577-1.425 1.223-1.614 1.193-.35 2.328-.137 3.414.39.496.24.96.546 1.434.83.272.161.353.155.489-.123.615-1.256.218-2.641-1.284-3.153-1.318-.45-2.607-.405-3.876.18-.186.086-.39.25-.609.074-.227-.184-.075-.403-.017-.597.417-1.404.84-2.805 1.269-4.205.094-.307.339-.465.697-.446.527.029 1.051.108 1.578.12.79.02 1.583.027 2.372-.012.587-.03 1.102-.288 1.555-.662.055-.045.166-.097.202-.073.053.035.085.133.09.207.037.606-.223 1.073-.705 1.436-.57.43-1.221.63-1.932.647-.737.017-1.474.027-2.21.03-.166.002-.254.062-.293.218-.066.26-.136.521-.211.78-.057.193.016.27.211.262.464-.017.928-.048 1.391-.045a4.246 4.246 0 012.883 1.106c.773.688 1.086 1.576 1.133 2.568.037.795-.115 1.556-.552 2.241-.119.187-.065.268.136.321.534.141 1.027.045 1.498-.218.04-.022.077-.047.118-.066.014-.006.035.001.133.007zm-4.568.226l-.016-.097c-.067-.041-.13-.092-.203-.124-.53-.235-1.053-.495-1.597-.693-.555-.203-1.132-.348-1.736-.207-.272.063-.544.132-.623.445-.088.345.123.56.369.748.077.059.172.101.264.137.934.36 1.882.37 2.834.088.244-.072.473-.197.708-.297z"/></defs><g fill="none" fill-rule="evenodd"><use fill="#000" filter="url(#a)" xlink:href="#b"/><use fill="#C1A05C" xlink:href="#b"/><use fill="url(#c)" style="mix-blend-mode:soft-light" xlink:href="#b"/><circle cx="16" cy="15" r="14.5" stroke="#000" stroke-opacity=".097"/><use fill="#000" filter="url(#d)" xlink:href="#e"/><use fill="#FFF" xlink:href="#e"/></g></svg>
